assets/images/category_ice_cream.svg

<svg xmlns="http://www.w3.org/2000/svg" width="200" height="400"><path fill="none" stroke="#000" stroke-width="3" d="M70 80q30-30 60 0l-10 180q0 20-20 40-20-20-20-40Z"/><path fill="#EFE4D4" stroke="#000" d="M80 130q20-20 40 0l-5 120q0 20-15 30-15-10-15-30Z"/><circle cx="100" cy="95" r="20" fill="#FDF5E6" stroke="#000" stroke-width="2"/><path fill="none" stroke="#000" stroke-width="2" d="M80 100q10-20 20-15 10-5 20 15"/><path fill="#fff" stroke="#000" stroke-width="2" d="M85 85q5-20 15-15 10-5 15 15"/><path stroke="#000" stroke-width="3" d="m110 70 30-40M100 300v40"/><ellipse cx="100" cy="350" fill="none" stroke="#000" stroke-width="3" rx="30" ry="10"/></svg>

<svg width="200" height="400" viewBox="0 0 200 400" xmlns="http://www.w3.org/2000/svg">
  <!-- Glass Outline -->
  <path d="M70,80 Q100,50 130,80 L120,260 Q120,280 100,300 Q80,280 80,260 Z" stroke="black" fill="none" stroke-width="3"/>
  
  <!-- Drink Inside -->
  <path d="M80,130 Q100,110 120,130 L115,250 Q115,270 100,280 Q85,270 85,250 Z" fill="#EFE4D4" stroke="black" stroke-width="1"/> <!-- Creamy Drink -->

  <!-- Ice Cream Scoop -->
  <circle cx="100" cy="95" r="20" fill="#FDF5E6" stroke="black" stroke-width="2"/> <!-- Vanilla Ice Cream -->
  <path d="M80,100 Q90,80 100,85 Q110,80 120,100" stroke="black" fill="none" stroke-width="2"/> <!-- Ice Cream Texture -->

  <!-- Whipped Cream -->
  <path d="M85,85 Q90,65 100,70 Q110,65 115,85" stroke="black" fill="white" stroke-width="2"/> <!-- Whipped Cream Swirl -->

  <!-- Straw -->
  <line x1="110" y1="70" x2="140" y2="30" stroke="black" stroke-width="3"/> <!-- Straw -->

  <!-- Glass Stem -->
  <line x1="100" y1="300" x2="100" y2="340" stroke="black" stroke-width="3"/>

  <!-- Glass Base -->
  <ellipse cx="100" cy="350" rx="30" ry="10" stroke="black" fill="none" stroke-width="3"/>
</svg>
